resources/haticons/SVG/neutral1.svg

<!-- Generated by IcoMoon.io -->
<svg version="1.1" xmlns="http://www.w3.org/2000/svg" width="24" height="24" viewBox="0 0 24 24">
<title>neutral1</title>
<path d="M12 0c-6.619 0-12 5.381-12 12s5.381 12 12 12 12-5.381 12-12-5.381-12-12-12zM12 22.5c-5.79 0-10.5-4.71-10.5-10.5s4.71-10.5 10.5-10.5 10.5 4.71 10.5 10.5-4.71 10.5-10.5 10.5zM9.322 8.010c0 0.899-0.729 1.627-1.627 1.627s-1.628-0.729-1.628-1.627c0-0.899 0.729-1.627 1.628-1.627s1.627 0.729 1.627 1.627zM17.933 8.010c0 0.899-0.729 1.627-1.628 1.627s-1.627-0.729-1.627-1.627c0-0.899 0.729-1.627 1.627-1.627s1.628 0.729 1.628 1.627zM17.348 15.93h-10.695c-0.413 0-0.75 0.337-0.75 0.75s0.337 0.75 0.75 0.75h10.695c0.412 0 0.75-0.337 0.75-0.75s-0.334-0.75-0.75-0.75z"></path>
</svg>

<svg xmlns="http://www.w3.org/2000/svg" width="24" height="24"><path d="M12 0C5.381 0 0 5.381 0 12s5.381 12 12 12 12-5.381 12-12S18.619 0 12 0zm0 22.5C6.21 22.5 1.5 17.79 1.5 12S6.21 1.5 12 1.5 22.5 6.21 22.5 12 17.79 22.5 12 22.5zM9.322 8.01a1.627 1.627 0 1 1-3.254 0 1.627 1.627 0 0 1 3.254 0zm8.611 0a1.627 1.627 0 1 1-3.255 0 1.627 1.627 0 0 1 3.255 0zm-.585 7.92H6.653c-.413 0-.75.337-.75.75s.337.75.75.75h10.695a.75.75 0 1 0 0-1.5z"/></svg>
